X: 42432
T: West Wind, The
R: reel
M: 4/4
K: Gmajor
|:(3Bcd GA BGdB|AD F2 ABcA|(3Bcd GA BGdB|cAFG AG G2|
(3Bcd GA BGdB|AD D2 ABcA|G2 (3Bcd g3e|fdcA AG G2|
|:G2 (3Bcd g3e|f3d ABcA|G2 (3Bcd g3e|fdcA DBcA|
G2 (3Bcd g3e|f3d ABcA|g3a bgag|1 fdcA AGGF:|2 fdcA AGGA||
|:(3BcB Gd (3BcB Gd|(3AcA Fd (3AcA Fd|(3BcB Gd (3BcB Gd|cAFG AGGA|
(3BcB GA BGdB|AD F2 ABcA|G2 (3Bcd g3e|1 fdcA AGGA:|2 fdcA AG G2||

